assets/icons/qvision/thumb_down_off_alt.svg

<svg xmlns="http://www.w3.org/2000/svg" height="24" viewBox="0 0 24 24" width="24"><path d="M24 24H0V0h24v24z" fill="none"/><path d="M10.89 18.28l.57-2.89c.12-.59-.04-1.2-.42-1.66-.38-.46-.94-.73-1.54-.73H4v-1.08L6.57 6h8.09c.18 0 .34.16.34.34v7.84l-4.11 4.1M10 22l6.41-6.41c.38-.38.59-.89.59-1.42V6.34C17 5.05 15.95 4 14.66 4h-8.1c-.71 0-1.36.37-1.72.97l-2.67 6.15c-.11.25-.17.52-.17.8V13c0 1.1.9 2 2 2h5.5l-.92 4.65c-.05.22-.02.46.08.66.23.45.52.86.88 1.22L10 22zm10-7h2V4h-2c-.55 0-1 .45-1 1v9c0 .55.45 1 1 1z"/></svg>

<svg width="24" height="24" viewBox="0 0 24 24" fill="none" xmlns="http://www.w3.org/2000/svg">
<g clip-path="url(#clip0_147_4876)">
<path d="M10.89 18.28L11.46 15.39C11.58 14.8 11.42 14.19 11.04 13.73C10.66 13.27 10.1 13 9.5 13H4V11.92L6.57 6H14.66C14.84 6 15 6.16 15 6.34V14.18L10.89 18.28ZM10 22L16.41 15.59C16.79 15.21 17 14.7 17 14.17V6.34C17 5.05 15.95 4 14.66 4H6.56C5.85 4 5.2 4.37 4.84 4.97L2.17 11.12C2.06 11.37 2 11.64 2 11.92V13C2 14.1 2.9 15 4 15H9.5L8.58 19.65C8.53 19.87 8.56 20.11 8.66 20.31C8.89 20.76 9.18 21.17 9.54 21.53L10 22ZM20 15H22V4H20C19.45 4 19 4.45 19 5V14C19 14.55 19.45 15 20 15Z" fill="#323232"/>
</g>
<defs>
<clipPath id="clip0_147_4876">
<rect width="24" height="24" fill="white"/>
</clipPath>
</defs>
</svg>
